!!!SOCIAL_FUNCTION:	songs of ceremonial dances
!!!PDT:	1958
!!!OTL: No_10_Song_of_the_Grasshopper_Dance.krn
!!!REG: Northern California
!!!LANG: Non-Tone
!!!LING_GROUP: Penutian
**kern
*staff1
=1-
*clefF4
*k[f#c#g#]
*M2/4
4r
8.r
16d#\
=2
(16d#\LK
8.B\J)
8B\L
8B\J
=3
(16B\LK
(8.F#\J)
8F#\)
16r
16d#\
=4
*M3/4
16d#\LK
8.c#\J
16B\LL
16G#\J
8B\J
8B\L
16A\Jk
16r
=5
*M2/4
8d#\L
8B\J
16B\LL
16F#\J
8A\J
=6
8A\L
8A\J
4A\
=7
(16A\LK
8.F#\J)
8F#\
16r
16c#\
=8
*M3/8
12c#\L
12B\
12c#\J
8B\
=9
*M3/4
8.B\L
16B\Jk
(16A\LK
[8.F#\J)
8F#\]
16r
16c#\
=10
(16c#\LK
8.B\J)
4B\
8B\L
8A\J
=11
*M2/4
8c#\L
8B\J
16B\LL
16F#\J
8A\J
=12
8A\L
8A\J
4A\
=13
(16A\LK
[8.F#\J)
8F#\]
16r
16c#\
=14
*M3/8
12c#\L
12B\
12c#\J
8B\
=15
*M3/4
8.B\L
16B\Jk
(16A\LK
[8.F#\J)
8F#\]
16r
16c#\
=16
(16c#\LK
8.B\J)
4B\
8B\L
8A\J
=17
*M2/4
8c#\L
8B\J
16B\LL
16F#\J
8A\J
=18
8A\L
8A\J
4A\
=19
(16A\LK
[8.F#\J)
8F#\]
16r
16e\
=20
*M3/8
12e\L
12d\
12e\J
8e\
=21
*M3/4
4B\
(16B\LK
[8.F#\J)
8F#\]
16r
16d#\
=22
8B\L
8B\J
4B\
8B\L
16A\Jk
16r
=23
*M2/4
8d#\L
8B\J
16B\LL
16A\J
8F#\J
=24
8A\L
8A\J
4A\
=25
(16A\LK
[8.F#\J)
8F#\]
16r
16c#\
=26
*M3/8
12c#\L
12B\
12c#\J
8B\
=27
*M3/4
8.B\L
16B\Jk
(16A\LK
[8.F#\J)
8F#\]
16r
16c#\
=28
8B\L
8B\J
4B\
8B\L
8A\J
=29
*M2/4
8c#\L
8B\J
16B\LL
16F#\J
8A\J
=30
8A\L
8A\J
4A\
=31
(16A\LK
[8.F#\J)
8F#\]
8r
==
*-
